!! 00026] TT[TB
!! Eigene Aufnahme
!!!OTL: Song qing lang
!!!ARE: Asia, China,ˇGuangdong, Lufeng
!! Ethnic Group: Han
!! II, 406, 2)
!!!SCT: C0249
!!!YEM: Copyright 1995, estate of Helmut Schaffrath.
**kern
*ICvox
*Ivox
*M2/4
*k[f#c#g#d#]
*E:
{8g#
8g#
8cc#
[8ee
=1
4.ee]
24gg#
24cc#
24b
=2
8ee
16cc#
16ee
8cc#
[8b
=3
2b]}
=4
{8g#
8g#
8ee
[8cc#
=5
4.cc#]
24ee
24cc#
24g#
=6
8b
8ee
8cc#
[8b
=7
2b]}
=8
{8g#
8g#
8cc#
[8ee
=9
4.ee]
24gg#
24cc#
24b
=10
8ee
8b
16cc#
16ee
8cc#}
=11
{8g#
8g#
8ee
[8cc#
=12
4.cc#]
24ee
24cc#
24g#
=13
8ee
16cc#
16ee
8cc#
[8b
=14
2b]}
==
!!!AGN: Shange. NannÅ liqing
!! Vgl. Nr. 59, 98
!!    Der Saenger Lai Yuan Shen war frueher selbst Landarbeiter. Heute ist
!!    er Student an der Guangzhouer Musikhochschule. Aufgenommen am 5.5.87
!!    Einige Verzierungen.
!!!ONB: ESAC (Essen Associative Code) Database: CHINA
!!!AMT: simple duple
!!!AIN: vox
!!!EED: Helmut Schaffrath
!!!EEV: 1.0
*-
!!!ONB: Tied note syntax fixed by Craig Sapp, 2004/05/03/
